svg/media/announcement_line.svg

<?xml version="1.0" encoding="UTF-8"?>
<svg width="24px" height="24px" viewBox="0 0 24 24" version="1.1" xmlns="http://www.w3.org/2000/svg" xmlns:xlink="http://www.w3.org/1999/xlink">
    <title>announcement_line</title>
    <g id="页面-1" stroke="none" stroke-width="1" fill="none" fill-rule="evenodd">
        <g id="Media" transform="translate(-96.000000, -192.000000)">
            <g id="announcement_line" transform="translate(96.000000, 192.000000)">
                 <path d="M24,0 L24,24 L0,24 L0,0 L24,0 Z M12.5934901,23.257841 L12.5819402,23.2595131 L12.5108777,23.2950439 L12.4918791,23.2987469 L12.4918791,23.2987469 L12.4767152,23.2950439 L12.4056548,23.2595131 C12.3958229,23.2563662 12.3870493,23.2590235 12.3821421,23.2649074 L12.3780323,23.275831 L12.360941,23.7031097 L12.3658947,23.7234994 L12.3769048,23.7357139 L12.4804777,23.8096931 L12.4953491,23.8136134 L12.4953491,23.8136134 L12.5071152,23.8096931 L12.6106902,23.7357139 L12.6232938,23.7196733 L12.6232938,23.7196733 L12.6266527,23.7031097 L12.609561,23.275831 C12.6075724,23.2657013 12.6010112,23.2592993 12.5934901,23.257841 L12.5934901,23.257841 Z M12.8583906,23.1452862 L12.8445485,23.1473072 L12.6598443,23.2396597 L12.6498822,23.2499052 L12.6498822,23.2499052 L12.6471943,23.2611114 L12.6650943,23.6906389 L12.6699349,23.7034178 L12.6699349,23.7034178 L12.678386,23.7104931 L12.8793402,23.8032389 C12.8914285,23.8068999 12.9022333,23.8029875 12.9078286,23.7952264 L12.9118235,23.7811639 L12.8776777,23.1665331 C12.8752882,23.1545897 12.8674102,23.1470016 12.8583906,23.1452862 L12.8583906,23.1452862 Z M12.1430473,23.1473072 C12.1332178,23.1423925 12.1221763,23.1452606 12.1156365,23.1525954 L12.1099173,23.1665331 L12.0757714,23.7811639 C12.0751323,23.7926639 12.0828099,23.8018602 12.0926481,23.8045676 L12.108256,23.8032389 L12.3092106,23.7104931 L12.3186497,23.7024347 L12.3186497,23.7024347 L12.3225043,23.6906389 L12.340401,23.2611114 L12.337245,23.2485176 L12.337245,23.2485176 L12.3277531,23.2396597 L12.1430473,23.1473072 Z" id="MingCute" fill-rule="nonzero"></path>
                <path d="M19,4.74105 L19,8.00001 C20.6569,8.00001 22,9.34316 22,11 C22,12.6569 20.6569,14 19,14 L19,17 C19,18.6481 17.1185,19.5889 15.8,18.6 L13.7391,17.0543 C12.6345,16.2259 11.3518,15.6766 10,15.4461 L10,18.2899 C10,19.7867 8.78665,21 7.28992,21 C6.07992,21 5.01652,20.1979 4.68411,19.0344 L3.11363,13.5378 C2.41775,12.7167 2,11.6549 2,10.5 C2,8.00565 3.94862,5.94577 6.43914,5.80741 L9.45777,5.63971 C10.9342,5.55768 12.3701,5.12639 13.6475,4.38129 L15.9923,3.01349 C17.3256,2.23572 19,3.19747 19,4.74105 Z M5.63373,15.078 L6.60716,18.485 C6.69425,18.7898 6.97288,19 7.28992,19 C7.68209,19 8,18.6821 8,18.2899 L8,15.2793 L6.43914,15.1926 C6.16339,15.1773 5.89428,15.1384 5.63373,15.078 Z M17,4.74105 L14.6552,6.10885 C13.2292,6.94071 11.6403,7.45039 10,7.60441 L10,13.4227 C11.7874,13.6691 13.4881,14.3661 14.9391,15.4543 L17,17 L17,4.74105 Z M8,7.72378 L6.55008,7.80433 C5.11939,7.88381 4,9.06712 4,10.5 C4,11.875584 5.03162982,13.0211366 6.37994316,13.1809164 L6.55008,13.1957 L8,13.2762 L8,7.72378 Z M19,10 L19,12 C19.5523,12 20,11.5523 20,11 C20,10.48715 19.613973,10.0644908 19.1166239,10.0067275 L19,10 Z" id="形状" fill="#09244B"></path>
            </g>
        </g>
    </g>
</svg>

<svg xmlns="http://www.w3.org/2000/svg" width="24" height="24"><g fill="none" fill-rule="evenodd"><path d="M24 0v24H0V0h24ZM12.593 23.258l-.011.002-.071.035-.02.004-.014-.004-.071-.035c-.01-.004-.019-.001-.024.005l-.004.01-.017.428.005.02.01.013.104.074.015.004.012-.004.104-.074.012-.016.004-.017-.017-.427c-.002-.01-.009-.017-.017-.018Zm.265-.113-.013.002-.185.093-.01.01-.003.011.018.43.005.012.008.007.201.093c.012.004.023 0 .029-.008l.004-.014-.034-.614c-.003-.012-.01-.02-.02-.022Zm-.715.002a.023.023 0 0 0-.027.006l-.006.014-.034.614c0 .012.007.02.017.024l.015-.002.201-.093.01-.008.004-.011.017-.43-.003-.012-.01-.01-.184-.092Z"/><path fill="#09244B" d="M19 4.741V8a3 3 0 1 1 0 6v3c0 1.648-1.881 2.589-3.2 1.6l-2.06-1.546A8.658 8.658 0 0 0 10 15.446v2.844a2.71 2.71 0 0 1-5.316.744l-1.57-5.496a4.7 4.7 0 0 1 3.326-7.73l3.018-.168a9.344 9.344 0 0 0 4.19-1.259l2.344-1.368C17.326 2.236 19 3.197 19 4.741ZM5.634 15.078l.973 3.407A.71.71 0 0 0 8 18.29v-3.01l-1.56-.087a4.723 4.723 0 0 1-.806-.115ZM17 4.741 14.655 6.11A11.343 11.343 0 0 1 10 7.604v5.819c1.787.246 3.488.943 4.94 2.031L17 17V4.741ZM8 7.724l-1.45.08a2.7 2.7 0 0 0-.17 5.377l.17.015 1.45.08V7.724ZM19 10v2a1 1 0 0 0 .117-1.993L19 10Z"/></g></svg>
